X: 247
T: the Old Langolee
B: O'Neill's 247
N: "Playful"
Z: 1997 by John Chambers <jc@trillian.mit.edu>
M: 6/8
L: 1/8
K:G
G3 B3|AGA BGE|DEG G2e|dcB A2BAG|
|G3 B2B|AGA BGE|DEG G2e|dcB BA2G||
||Bcd def|edc BAG|Bcd def|efd g2G|
|GBd gfe|dcB BAG|GDG GDG|GcB A2BAG||
